X: 5
T: The Flowers Of Red Hill
R: reel
M: 4/4
L: 1/8
K: Amix
eA (3AAA gAfA|eA (3AAA (3efe df|eA (3AAA eAaf|gedB GABd:|
|:ea (3aaa ba ag|1eaag edBd|ea (3aaa ba ag|edeg gedg:| aged|edeg gedg||


Tune 442	Setting 13307

